public/assets/icons/date.svg

<svg fill="none" height="20" viewBox="0 0 20 20" width="20" xmlns="http://www.w3.org/2000/svg"><path d="m14.1665 2.50016h3.3333c.2211 0 .433.0878.5893.24408s.2441.36824.2441.58926v13.3333c0 .221-.0878.433-.2441.5893s-.3682.2441-.5893.2441h-14.99996c-.22102 0-.43298-.0878-.58926-.2441s-.24408-.3683-.24408-.5893v-13.3333c0-.22102.0878-.43298.24408-.58926s.36824-.24408.58926-.24408h3.33333v-1.666664h1.66667v1.666664h4.99996v-1.666664h1.6667zm-1.6667 1.66667h-4.99996v1.66667h-1.66667v-1.66667h-2.5v3.33333h13.33333v-3.33333h-2.5v1.66667h-1.6667zm4.1667 5h-13.33333v6.66667h13.33333z" fill="#2d3748"/></svg>

<svg width="20" height="20" viewBox="0 0 20 20" fill="none" xmlns="http://www.w3.org/2000/svg">
<path d="M14.1665 2.50016H17.4998C17.7209 2.50016 17.9328 2.58796 18.0891 2.74424C18.2454 2.90052 18.3332 3.11248 18.3332 3.3335V16.6668C18.3332 16.8878 18.2454 17.0998 18.0891 17.2561C17.9328 17.4124 17.7209 17.5002 17.4998 17.5002H2.49984C2.27882 17.5002 2.06686 17.4124 1.91058 17.2561C1.7543 17.0998 1.6665 16.8878 1.6665 16.6668V3.3335C1.6665 3.11248 1.7543 2.90052 1.91058 2.74424C2.06686 2.58796 2.27882 2.50016 2.49984 2.50016H5.83317V0.833496H7.49984V2.50016H12.4998V0.833496H14.1665V2.50016ZM12.4998 4.16683H7.49984V5.8335H5.83317V4.16683H3.33317V7.50016H16.6665V4.16683H14.1665V5.8335H12.4998V4.16683ZM16.6665 9.16683H3.33317V15.8335H16.6665V9.16683Z" fill="#2D3748"/>
</svg>
